svgs/thin/circle-up.svg

<svg xmlns="http://www.w3.org/2000/svg" viewBox="0 0 512 512"><!--! Font Awesome Pro 6.3.0 by @fontawesome - https://fontawesome.com License - https://fontawesome.com/license (Commercial License) Copyright 2023 Fonticons, Inc. --><path d="M272.1 122.3C268.3 117.7 262.1 115.3 256 115.3S243.7 117.7 239 122.3L146.3 215C131.2 230.1 141.9 256 163.3 256H208v104C208 373.3 218.7 384 232 384h48c13.25 0 24-10.74 24-24V256h44.69c21.38 0 32.09-25.85 16.97-40.97L272.1 122.3zM356.1 235.1C355.5 236.5 353.5 240 348.7 240H288l.0006 120c0 4.414-3.589 8-8.001 8h-48c-4.412 0-7.999-3.586-7.999-8L224 240H163.3c-4.824 0-6.777-3.453-7.393-4.938c-.6133-1.484-1.676-5.305 1.736-8.719l92.68-92.68C252.4 131.6 254.8 131.3 256 131.3s3.617 .3047 5.656 2.344l92.68 92.68C357.8 229.8 356.7 233.6 356.1 235.1zM256 0C114.6 0 0 114.6 0 256s114.6 256 256 256s256-114.6 256-256S397.4 0 256 0zM256 496c-132.3 0-240-107.7-240-240S123.7 16 256 16s240 107.7 240 240S388.3 496 256 496z"/></svg>

<svg xmlns="http://www.w3.org/2000/svg" viewBox="0 0 512 512"><!-- Font Awesome Pro 6.0.0-alpha2 by @fontawesome - https://fontawesome.com License - https://fontawesome.com/license (Commercial License) --><path d="M272.971 122.346C268.283 117.66 262.143 115.316 256 115.316S243.717 117.66 239.029 122.346L146.346 215.029C131.227 230.148 141.934 256 163.316 256H208V360C208 373.256 218.746 384 232 384H280C293.254 384 304 373.256 304 360V256H348.684C370.066 256 380.773 230.148 365.654 215.029L272.971 122.346ZM356.076 235.062C355.461 236.547 353.508 240 348.684 240H288V360C288 364.412 284.412 368 280 368H232C227.588 368 224 364.412 224 360V240H163.316C158.492 240 156.539 236.547 155.924 235.062C155.311 233.576 154.248 229.756 157.66 226.344L250.344 133.66C252.383 131.621 254.762 131.316 256 131.316S259.617 131.621 261.656 133.66L354.34 226.344C357.752 229.756 356.689 233.576 356.076 235.062ZM256 16C123.451 16 16 123.451 16 256S123.451 496 256 496S496 388.549 496 256S388.549 16 256 16ZM256 480C132.486 480 32 379.514 32 256S132.486 32 256 32S480 132.486 480 256S379.514 480 256 480Z"/></svg>
